!!!Melodie: Wachet auf, ruft uns die Stimme
!!!Typ: Lied
**kern	**silbe
*clefG2	*lang:DE
2c	Herr,
2e	du
2.g	wol#
4g	#lest
4g	uns
4g	be#
(4a	#rei#
4g	|
2a)	|
2g	#ten
4r	%
=	=
4g	zu
4cc	dei#
4g	#nes
4cc	Mah#
4ee	#les
4dd	Se#
4ee	#lig#
2dd	#kei#
2g	#ten;
4r	%
=	=
4g	Sei
4cc	mit#
4g	#ten
4a	un#
4e	#ter
4f	uns,
4d	o
2c	Gott!
2r	%
=	=
2c	Lass
2e	uns,
2.g	Le#
4g	#ben
4g	zu
4g	emp#
(4a	#fa#
4g	|
2a)	|
2g	#hen,
4r	%
=	=
4g	mit
4cc	glau#
4g	#bens#
4cc	#vol#
4ee	#lem
4dd	Her#
4ee	#zen
2dd	na#
2g	#hen
4r	%
=	=
4g	und
4cc	sprich
4g	uns
4a	los
4e	von
4f	Sünd’
4d	und
2c	Tod.
4r	%
=	=
4g	Wir
2.g	sind,
4f	O
4e	Je#
4d	#su,
2c	dein:
4r	%
=	=
4g	Dein
2.g	lass
4f	uns
4e	e#
4d	#wig
2c	sein!
=	=
4d	A#
4e	#men,
2f	A#
2e	#men,
2g	An#
4a	#be#
4b	#tung
2cc	dir!
4cc	Einst
4ee	fei#
=	=
2dd	#ern
2cc	wir
2g	das
4cc	gro#
4g	#ße
4a	A#
4e	#bend#
4f	#mahl
4d	bei
1c	dir!
==	==
*-	*-
